X:1

T:Road to the Glens

M:6/8

L:1/8

R:Jig

S:Treoir, vol. 19, No. 1, 1987

K:D

A,|DEF EDB,|GAB AFD|GBd AFD|FEE E2A,|DEF EDB,|

GBd AFD|B/c/dB AFD|EDC D2::d|fed ecA|B/c/dB AFD|

GBd AFD|FED E2d|fed ecA|dcB AFD|GAB E/F/GE|FDD D2:|

 

ROAD TO THE ISLES. AKA and see “The Bens of Jura.” "The Burning Sands of Egypt." Scottish, Canadian, American; (Pipe) March (duple time): Ireland, Barndance. USA; Michigan, southwestern Pa. D Major. Standard. AB. The tune was composed originally under the title "The Burning Sands of Egypt" by John McClellan, D.C.M., a poet and painter from Dunoon, Scotland, who was Pipe‑Major of the 8th Battalion, Argyl and Sutherland Highlanders during World War I. Paul Gifford reports that William McNally (1870-1954), a well-known dulcimer player from Glasgow, claimed to have popularized that tune (and also "Skye Boat Song") and that he recorded the tune for Regal-Zonophone about 1932. The illiterate son of Irish circus people, he had learned the dulcimer from his mother and entertained for many years on excursion boats out of Oban in the Hebrides.

***

Later the tune was known as “The Bens of Jura” (‘ben’ being the Gaelic word for mountain). Jim Coogan remembers learning the tune from Irish musicians in New York in the 1950’s as an accompaniment for a dance called the "Pally Glide," reminiscent of the popular Irish dance “Shoe the Donkey.” Source for notated version: Hiram Horner (fifer form Westmoreland and Fayette Counties, Pa.; learned from Michigan musicians at Philippi, W.Va.) [Bayard]. Bayard (Dance to the Fiddle), 1981; No. 346, pg. 334. Arc: AS 794, Harry Hibbs – “Harry Hibbs at the Caribou Club” (1969?). Glenfinnan Music, Ltd.: GRCD112, Alex Beaton – “The Road to the Isles” (1990). MCA Cora: CB-35013, Don Messer – “TV Favorites.” MCA Records MCAD 4037, “The Very Best of Don Messer” (1994). Paragon: ALS 211, Gerry Reeves – “Down East Accordion.” “Tom Doherty – “Take the Bull by the Horns.” RCA Camden: CAS 2274, Al Cherny – “Golden Slippers” (1968). Mary Custy & Eoin O’Neill – “With a Lot of Help from Their Friends.”

